X: 1
T: Lord Seaforth's Reel
R: reel (originally strathspey)
B: RSCDS __-__
Z: 2007 converted to reel by John Chambers <jc:trillian.mit.edu>
M: C
L: 1/8
K: G
B | "G"GDDE    "Em"GABG    | "Am"cA"(G)"BG "C"~E2EA     | "G"GDDE "Em"GABe | "D7"dBAB "G"G2-G :|
g | "C"eg"G"dg     BgdB    | "Am"cA"(G)"BG "C"~E2Eg     | "C"eg"G"dg  BgdB | "D7"cAdB "G"G2-G ||
g | "C"eg"G"db "Am"ca"G"Bg | "Am"cA"(G)"BG "C"~E2"D7"EA | "G"GDDE "Em"GABe | "D7"dBAB "G"G2-G |]
